fs/arrow_trending_down_20_filled.svg

<svg viewBox="0 0 20 20" fill="none" xmlns="http://www.w3.org/2000/svg" height="1em" width="1em">
  <path d="M17.9431 14.5371C17.9068 14.6249 17.853 14.7072 17.7819 14.7787L17.7803 14.7803L17.7787 14.7819C17.6431 14.9167 17.4563 15 17.25 15H11.75C11.3358 15 11 14.6642 11 14.25C11 13.8358 11.3358 13.5 11.75 13.5H15.4393L10.5 8.56066L8.53033 10.5303C8.23744 10.8232 7.76256 10.8232 7.46967 10.5303L2.21967 5.28033C1.92678 4.98744 1.92678 4.51256 2.21967 4.21967C2.51256 3.92678 2.98744 3.92678 3.28033 4.21967L8 8.93934L9.96967 6.96967C10.2626 6.67678 10.7374 6.67678 11.0303 6.96967L16.5 12.4393V8.75C16.5 8.33579 16.8358 8 17.25 8C17.6642 8 18 8.33579 18 8.75V14.25C18 14.3517 17.9798 14.4487 17.9431 14.5371Z" fill="#212121"/>
</svg>

<svg viewBox="0 0 20 20" fill="none" xmlns="http://www.w3.org/2000/svg" height="1em" width="1em">
  <path d="M17.943 14.537a.747.747 0 0 1-.161.242l-.002.001-.001.002a.748.748 0 0 1-.529.218h-5.5a.75.75 0 0 1 0-1.5h3.69L10.5 8.56l-1.97 1.97a.75.75 0 0 1-1.06 0L2.22 5.28a.75.75 0 0 1 1.06-1.06L8 8.94l1.97-1.97a.75.75 0 0 1 1.06 0l5.47 5.47V8.75a.75.75 0 0 1 1.5 0v5.5c0 .102-.02.199-.057.287Z" fill="#212121"/>
</svg>
